Logos/VirtualMetric.svg

<svg width="160" height="24" viewBox="0 0 160 24" fill="none" xmlns="http://www.w3.org/2000/svg">
<mask id="mask0_3108_317017" style="mask-type:luminance" maskUnits="userSpaceOnUse" x="0" y="3" width="160" height="18">
<path d="M160 3H0V20.3317H160V3Z" fill="white"/>
</mask>
<g mask="url(#mask0_3108_317017)">
<mask id="mask1_3108_317017" style="mask-type:luminance" maskUnits="userSpaceOnUse" x="0" y="3" width="161" height="18">
<path d="M160.003 3.00391H0.03125V20.3356H160.003V3.00391Z" fill="white"/>
</mask>
<g mask="url(#mask1_3108_317017)">
<path d="M0 3.78125H9.30183V6.89605H0V3.78125Z" fill="#272461"/>
<path d="M0 10.4297H12.3977V13.5469H0V10.4297Z" fill="#272461"/>
<path d="M0 17.0801H16.5311V20.1949H0V17.0801Z" fill="#272461"/>
<path d="M30.7482 3.78125L26.7167 15.9278L22.7752 3.78125H19.0469L24.6276 20.1962H28.8272L34.3842 3.78125H30.7482Z" fill="#272461"/>
<path d="M35.5369 8.14071H38.8673V20.1949H35.5369V8.14071ZM35.2788 4.99981C35.2385 3.93861 36.0675 3.04561 37.1287 3.00531C38.1899 2.96511 39.0829 3.79411 39.1231 4.85771C39.1634 5.91881 38.3344 6.81181 37.2708 6.85211C37.2471 6.85211 37.2234 6.85211 37.1998 6.85211C36.1717 6.88531 35.3119 6.07751 35.2788 5.04951C35.2788 5.03291 35.2788 5.01641 35.2788 4.99981Z" fill="#272461"/>
</g>
<path d="M48.4827 8.13867V11.1398H47.1704C45.1997 11.1398 44.4512 12.4521 44.4512 14.2831V20.1929H41.1445V8.13867H44.1456L44.4512 9.94357C45.1073 8.86587 46.0453 8.13867 47.9213 8.13867H48.485H48.4827Z" fill="#272461"/>
<path d="M51.3398 10.9294H49.3477V8.13907H51.3398V4.76367H54.6465V8.14137H57.4131V10.9318H54.6465V16.2068C54.6465 17.0524 54.9757 17.403 55.8426 17.403H57.4841V20.1933H54.7886C52.4909 20.1933 51.3421 19.0445 51.3421 16.7469V10.9318L51.3398 10.9294Z" fill="#272461"/>
<path d="M67.0541 8.13867H70.3608V20.1929H67.4284L67.1228 18.7386C66.3482 19.6766 65.2942 20.3327 63.5816 20.3327C61.0969 20.3327 58.7969 19.0891 58.7969 14.8231V8.13867H62.1036V14.3755C62.1036 16.5333 62.8071 17.5874 64.4486 17.5874C66.0901 17.5874 67.0517 16.3912 67.0517 14.1646V8.13867H67.0541Z" fill="#272461"/>
<path d="M80.1108 14.9877H77.6947C76.3114 14.9877 75.5131 15.5514 75.5131 16.5581C75.5131 17.4013 76.1929 17.9414 77.2944 17.9414C79.0306 17.9414 80.0847 16.8637 80.1084 15.2222V14.9877H80.1108ZM84.5212 17.4037V20.194H82.8324C81.1198 20.194 80.5821 19.3745 80.6058 18.2233C79.7626 19.5592 78.5427 20.3338 76.6667 20.3338C74.0635 20.3338 72.1875 19.0902 72.1875 16.7926C72.1875 14.2368 74.1109 12.7824 77.7207 12.7824H80.1131V12.195C80.1131 11.1172 79.3386 10.4137 77.9552 10.4137C76.6667 10.4137 75.7974 11.0012 75.6576 11.8918H72.467C72.7015 9.5468 74.8594 8 78.0476 8C81.4254 8 83.3701 9.5018 83.3701 12.3845V16.6528C83.3701 17.2853 83.6282 17.4037 84.1446 17.4037H84.5189H84.5212Z" fill="#272461"/>
<path d="M85.8125 3.7793H89.1192V20.1943H85.8125V3.7793Z" fill="#272461"/>
<path d="M91.6758 3.7793H96.2948L100.845 15.8312L105.253 3.7793H109.78V20.1943H106.426V9.1965L102.157 20.1943H99.2983L95.0299 9.1965V20.1943H91.6758V3.7793Z" fill="#272461"/>
<path d="M120.349 12.7614C120.115 11.2833 119.105 10.4638 117.606 10.4638C116.107 10.4638 115.098 11.3307 114.908 12.7614H120.349ZM111.391 14.1897C111.391 10.4377 113.852 7.99805 117.582 7.99805C121.313 7.99805 123.632 10.2482 123.679 13.7894C123.682 14.166 123.651 14.5427 123.585 14.9145H114.839V15.078C114.911 16.7905 116.012 17.8209 117.677 17.8209C119.013 17.8209 119.951 17.2335 120.233 16.1084H123.492C123.118 18.4534 121.031 20.3294 117.817 20.3294C113.807 20.3294 111.393 17.9133 111.393 14.185" fill="#272461"/>
<path d="M126.307 10.9294H124.312V8.13907H126.307V4.76367H129.614V8.14137H132.38V10.9318H129.614V16.2068C129.614 17.0524 129.943 17.403 130.81 17.403H132.451V20.1933H129.756C127.458 20.1933 126.309 19.0445 126.309 16.7469V10.9318L126.307 10.9294Z" fill="#272461"/>
<mask id="mask2_3108_317017" style="mask-type:luminance" maskUnits="userSpaceOnUse" x="0" y="3" width="161" height="18">
<path d="M160.003 3.00391H0.03125V20.3356H160.003V3.00391Z" fill="white"/>
</mask>
<g mask="url(#mask2_3108_317017)">
<path d="M141.315 8.14062V11.1417H140.003C138.032 11.1417 137.283 12.4539 137.283 14.2849V20.1948H133.977V8.14062H136.978L137.283 9.94552C137.939 8.86772 138.877 8.14062 140.753 8.14062H141.317H141.315Z" fill="#272461"/>
<path d="M142.795 8.14071H146.125V20.1949H142.795V8.14071ZM142.537 4.99981C142.496 3.93861 143.325 3.04561 144.389 3.00531C145.45 2.96511 146.343 3.79411 146.383 4.85771C146.424 5.91881 145.595 6.81181 144.531 6.85211C144.507 6.85211 144.484 6.85211 144.46 6.85211C143.432 6.88531 142.572 6.07751 142.539 5.04951C142.539 5.03291 142.539 5.01641 142.539 4.99981" fill="#272461"/>
</g>
<path d="M147.928 14.1681C147.928 10.4398 150.368 8 154.189 8C157.472 8 159.511 9.7813 159.98 12.6427H156.534C156.252 11.4465 155.432 10.6956 154.141 10.6956C152.407 10.6956 151.304 12.1263 151.304 14.1657C151.304 16.2052 152.405 17.6358 154.141 17.6358C155.432 17.6358 156.299 16.8613 156.534 15.6414H160.004C159.535 18.5265 157.353 20.3314 154.07 20.3314C150.247 20.3314 147.926 17.9627 147.926 14.1634" fill="#272461"/>
</g>
</svg>

<svg xmlns="http://www.w3.org/2000/svg" width="160" height="24" fill="none">
  <mask id="a" width="160" height="18" x="0" y="3" maskUnits="userSpaceOnUse" mask-type="luminance">
    <path fill="#fff" d="M160 3H0v17.332h160V3Z"/>
  </mask>
  <g mask="url(#a)">
    <mask id="b" width="161" height="18" x="0" y="3" maskUnits="userSpaceOnUse" mask-type="luminance">
      <path fill="#fff" d="M160.003 3.004H.031v17.332h159.972V3.004Z"/>
    </mask>
    <g fill="#272461" mask="url(#b)">
      <path d="M0 3.781h9.302v3.115H0V3.781ZM0 10.43h12.398v3.117H0V10.43ZM0 17.08h16.531v3.115H0V17.08ZM30.748 3.781l-4.031 12.147L22.775 3.78h-3.728l5.58 16.415h4.2l5.557-16.415h-3.636ZM35.537 8.14h3.33v12.055h-3.33V8.14ZM35.279 5a1.924 1.924 0 1 1 1.992 1.852H37.2a1.863 1.863 0 0 1-1.921-1.802V5Z"/>
    </g>
    <path fill="#272461" d="M48.483 8.139v3H47.17c-1.97 0-2.719 1.313-2.719 3.144v5.91h-3.306V8.139h3l.306 1.805c.656-1.078 1.594-1.805 3.47-1.805h.564-.002ZM51.34 10.93h-1.992V8.14h1.992V4.763h3.306V8.14h2.767v2.79h-2.766v5.276c0 .845.329 1.196 1.196 1.196h1.641v2.79H54.79c-2.298 0-3.447-1.149-3.447-3.446v-5.815l-.002-.003ZM67.054 8.139h3.307v12.054h-2.933l-.305-1.454c-.775.938-1.829 1.594-3.541 1.594-2.485 0-4.785-1.244-4.785-5.51V8.14h3.307v6.237c0 2.157.703 3.211 2.345 3.211 1.641 0 2.603-1.196 2.603-3.422V8.139h.002ZM80.11 14.988h-2.415c-1.384 0-2.182.563-2.182 1.57 0 .843.68 1.383 1.781 1.383 1.737 0 2.79-1.077 2.814-2.719v-.234h.003Zm4.411 2.416v2.79h-1.689c-1.712 0-2.25-.82-2.226-1.97-.843 1.335-2.063 2.11-3.94 2.11-2.602 0-4.478-1.244-4.478-3.541 0-2.556 1.923-4.01 5.533-4.01h2.392v-.588c0-1.078-.774-1.781-2.158-1.781-1.288 0-2.158.587-2.297 1.478h-3.191C72.701 9.547 74.859 8 78.047 8c3.378 0 5.323 1.502 5.323 4.384v4.269c0 .632.258.75.775.75h.376ZM85.813 3.78h3.306v16.414h-3.306V3.78ZM91.676 3.78h4.619l4.55 12.051 4.408-12.052h4.527v16.415h-3.354V9.197l-4.269 10.997h-2.859L95.03 9.197v10.997h-3.354V3.78ZM120.349 12.761c-.234-1.478-1.244-2.297-2.743-2.297-1.499 0-2.508.867-2.698 2.297h5.441Zm-8.958 1.429c0-3.752 2.461-6.192 6.191-6.192 3.731 0 6.05 2.25 6.097 5.791.003.377-.028.754-.094 1.126h-8.746v.163c.072 1.713 1.173 2.743 2.838 2.743 1.336 0 2.274-.588 2.556-1.713h3.259c-.374 2.345-2.461 4.221-5.675 4.221-4.01 0-6.424-2.416-6.424-6.144M126.307 10.93h-1.995V8.14h1.995V4.763h3.307V8.14h2.766v2.79h-2.766v5.276c0 .845.329 1.196 1.196 1.196h1.641v2.79h-2.695c-2.298 0-3.447-1.149-3.447-3.446v-5.815l-.002-.003Z"/>
    <mask id="c" width="161" height="18" x="0" y="3" maskUnits="userSpaceOnUse" mask-type="luminance">
      <path fill="#fff" d="M160.003 3.004H.031v17.332h159.972V3.004Z"/>
    </mask>
    <g fill="#272461" mask="url(#c)">
      <path d="M141.315 8.14v3.002h-1.312c-1.971 0-2.72 1.312-2.72 3.143v5.91h-3.306V8.14h3.001l.305 1.805c.656-1.078 1.594-1.805 3.47-1.805h.564-.002ZM142.795 8.14h3.33v12.055h-3.33V8.14ZM142.537 5a1.923 1.923 0 1 1 3.846-.142 1.923 1.923 0 0 1-1.852 1.994h-.071a1.863 1.863 0 0 1-1.921-1.802V5"/>
    </g>
    <path fill="#272461" d="M147.928 14.168c0-3.728 2.44-6.168 6.261-6.168 3.283 0 5.322 1.781 5.791 4.643h-3.446c-.282-1.197-1.102-1.947-2.393-1.947-1.734 0-2.837 1.43-2.837 3.47s1.101 3.47 2.837 3.47c1.291 0 2.158-.775 2.393-1.995h3.47c-.469 2.885-2.651 4.69-5.934 4.69-3.823 0-6.144-2.368-6.144-6.168"/>
  </g>
</svg>
